logos/dovetail.svg

<?xml version="1.0" encoding="UTF-8"?>
<svg width="512px" height="138px" viewBox="0 0 512 138" version="1.1" xmlns="http://www.w3.org/2000/svg" preserveAspectRatio="xMidYMid">
    <title>Dovetail</title>
    <g>
        <path d="M197.894454,90.4863193 L185.008403,90.4863193 L185.008403,51.4925714 L197.894454,51.4925714 C203.307025,51.4925714 207.768739,53.2996303 211.172034,56.8836303 C214.57963,60.4977479 216.279126,65.2090084 216.279126,71.0088067 C216.279126,76.7741849 214.57963,81.5198655 211.172034,85.099563 C207.768739,88.6792605 203.307025,90.4863193 197.894454,90.4863193 L197.894454,90.4863193 Z M197.894454,38.7226891 L172.10084,38.7226891 L172.10084,103.260504 L197.894454,103.260504 C206.749042,103.260504 214.235429,100.132571 220.172908,93.9541513 C226.110387,87.7757311 229.139361,80.0527059 229.139361,71.0088067 C229.139361,61.9304874 226.114689,54.2074622 220.172908,48.029042 C214.235429,41.8506218 206.749042,38.7226891 197.894454,38.7226891 Z M259.179563,92.267563 C255.776269,92.267563 252.863462,91.1316975 250.630454,88.8255462 C248.363025,86.519395 247.188437,83.5678655 247.188437,80.0139832 C247.188437,76.494521 248.363025,73.5429916 250.630454,71.2368403 C252.863462,68.9306891 255.776269,67.7948235 259.179563,67.7948235 C262.582857,67.7948235 265.495664,68.9306891 267.763092,71.2368403 C270.073546,73.5429916 271.248134,76.494521 271.248134,80.0139832 C271.248134,83.5678655 270.073546,86.519395 267.763092,88.8255462 C265.495664,91.1316975 262.582857,92.267563 259.179563,92.267563 M276.652101,62.6145882 C271.88921,57.8861176 266.024874,55.502521 259.179563,55.502521 C252.334252,55.502521 246.469916,57.8861176 241.741445,62.6145882 C237.012975,67.3430588 234.629378,73.2030924 234.629378,80.0139832 C234.629378,86.8592941 237.012975,92.7236303 241.741445,97.4521008 C246.469916,102.176269 252.334252,104.559866 259.179563,104.559866 C266.024874,104.559866 271.88921,102.176269 276.652101,97.4521008 C281.384874,92.7193277 283.802891,86.8592941 283.802891,80.0139832 C283.802891,73.2030924 281.380571,67.3430588 276.652101,62.6145882 M333.290487,55.9327731 L316.235294,103.260504 L301.176471,103.260504 L283.966387,55.9327731 L297.773176,55.9327731 L308.589714,87.1733782 L319.483697,55.9327731 L333.290487,55.9327731 Z M346.456202,75.3586555 C347.174723,72.7513277 348.461176,70.6689076 350.354286,69.1974454 C352.359261,67.6442353 354.927866,66.8482689 357.995563,66.8482689 C360.564168,66.8482689 362.909042,67.6055126 364.952739,69.0855798 C366.845849,70.4795966 368.166723,72.5620168 368.850824,75.3586555 L346.456202,75.3586555 Z M357.995563,55.502521 C350.844773,55.502521 344.907294,57.847395 340.329412,62.5027227 C335.751529,67.1924706 333.445378,73.0525042 333.445378,80.0139832 C333.445378,87.048605 335.790252,92.9473613 340.406857,97.6026891 C345.05358,102.214992 351.262118,104.559866 358.903395,104.559866 C367.792403,104.559866 374.598992,101.234017 379.138151,94.612437 L379.400605,94.2725378 L369.229445,88.4125042 L369.040134,88.6706555 C366.802824,91.6264874 363.438252,93.1022521 359.092706,93.1022521 C352.397983,93.1022521 348.310588,90.5293445 346.684235,85.2716639 L380.992538,85.2716639 L381.065681,84.9274622 C381.366857,83.2279664 381.521748,81.5628908 381.521748,80.0139832 C381.521748,73.1299496 379.284437,67.2656134 374.861445,62.5758655 C370.438454,57.8861176 364.763429,55.502521 357.995563,55.502521 L357.995563,55.502521 Z M405.744941,68.9651092 L405.744941,87.6122353 C405.744941,89.0836975 406.08484,90.1464202 406.803361,90.7874958 C407.521882,91.4672941 408.619025,91.845916 410.056067,91.962084 C410.701445,91.9965042 411.415664,91.9965042 412.172908,91.9965042 C413.231328,91.9965042 414.405916,91.962084 415.69237,91.8846387 L416.070992,91.8846387 L416.070992,103.307832 L415.72679,103.346555 C413.532504,103.609008 411.454387,103.725176 409.6,103.725176 C404.570353,103.725176 400.788437,102.817345 398.327395,101.001681 C394.885378,98.5062185 393.185882,94.001479 393.185882,87.6122353 L393.185882,68.9651092 L384.344202,68.9651092 L384.344202,57.3655126 L393.185882,57.3655126 L393.185882,47.7063529 L405.744941,43.8857143 L405.744941,57.3655126 L414.461849,57.3655126 L414.461849,68.9651092 L405.744941,68.9651092 Z M443.589916,92.5687395 C440.036034,92.5687395 437.084504,91.3640336 434.812773,89.0535798 C432.510924,86.7474286 431.336336,83.6840336 431.336336,80.0139832 C431.336336,76.3826555 432.510924,73.3192605 434.817076,71.0131092 C437.084504,68.6639328 440.074756,67.4936471 443.594218,67.4936471 C447.113681,67.4936471 450.09963,68.6639328 452.444504,71.0131092 C454.750655,73.3536807 455.920941,76.3826555 455.920941,80.0139832 C455.920941,83.6840336 454.750655,86.7474286 452.444504,89.0535798 C450.09963,91.3597311 447.148101,92.5687395 443.589916,92.5687395 Z M456.067227,55.9327731 L456.067227,61.547563 C452.513345,57.5376134 447.488,55.502521 441.39563,55.502521 C435.230118,55.502521 429.821849,57.8861176 425.433277,62.6145882 C421.010286,67.3430588 418.777277,73.2030924 418.777277,80.0139832 C418.777277,86.8592941 421.014588,92.7236303 425.43758,97.4521008 C429.826151,102.180571 435.195697,104.559866 441.399933,104.559866 C447.488,104.559866 452.513345,102.085916 456.067227,98.0759664 L456.067227,103.260504 L468.97479,103.260504 L468.97479,55.9327731 L456.067227,55.9327731 Z M478.345681,47.2804034 C476.903465,45.9000938 476.096738,43.9845065 476.116975,41.9883025 C476.116975,39.9747227 476.861311,38.1848739 478.345681,36.6962017 C479.834353,35.1645042 481.581176,34.4201681 483.590454,34.4201681 C485.672874,34.4201681 487.45842,35.1645042 488.94279,36.6918992 C490.431462,38.1848739 491.175798,39.9747227 491.175798,41.984 C491.175798,44.0018824 490.431462,45.7874286 488.94279,47.2761008 C487.531723,48.7065732 485.599643,49.5017703 483.590454,49.4789916 C481.616217,49.4885376 479.722967,48.6948943 478.345681,47.2804034 M477.579832,103.260504 L490.487395,103.260504 L490.487395,55.9327731 L477.579832,55.9327731 L477.579832,103.260504 Z M499.092437,103.260504 L512,103.260504 L512,34.4201681 L499.092437,34.4201681 L499.092437,103.260504 Z" fill="#230078"></path>
        <path d="M120.470588,86.0504202 L90.3529412,103.260504 L90.3529412,68.8403361 L60.2352941,51.4409412 L90.3529412,34.4201681 L120.470588,51.6302521 L120.470588,86.0504202 Z M60.2309916,51.6302521 L30.1133445,68.8403361 L30.1133445,34.4201681 L0,17.210084 L30.1176471,0 L60.2309916,17.210084 L60.2309916,51.6302521 Z M60.2309916,120.470588 L30.1133445,137.680672 L30.1176471,103.260504 L0,86.0504202 L30.1133445,68.8403361 L60.2309916,86.0504202 L60.2309916,120.470588 Z" fill="#230078"></path>
    </g>
</svg>

<svg preserveAspectRatio="xMidYMid" viewBox="0 0 512 138" xmlns="http://www.w3.org/2000/svg">
  <g fill="#230078">
    <path d="M197.894 90.486h-12.886V51.493h12.886c5.413 0 9.875 1.807 13.278 5.39 3.408 3.615 5.107 8.326 5.107 14.126 0 5.765-1.7 10.51-5.107 14.09-3.403 3.58-7.865 5.387-13.278 5.387Zm0-51.763h-25.793v64.538h25.793c8.855 0 16.341-3.128 22.279-9.307 5.937-6.178 8.966-13.901 8.966-22.945 0-9.079-3.024-16.802-8.966-22.98-5.938-6.178-13.424-9.306-22.279-9.306Zm61.286 53.545c-3.404 0-6.317-1.136-8.55-3.442-2.267-2.307-3.442-5.258-3.442-8.812 0-3.52 1.175-6.471 3.442-8.777 2.233-2.306 5.146-3.442 8.55-3.442 3.403 0 6.316 1.136 8.583 3.442 2.31 2.306 3.485 5.258 3.485 8.777 0 3.554-1.174 6.505-3.485 8.812-2.267 2.306-5.18 3.442-8.583 3.442m17.472-29.653c-4.763-4.729-10.627-7.112-17.472-7.112-6.846 0-12.71 2.383-17.439 7.112-4.728 4.728-7.112 10.588-7.112 17.399 0 6.845 2.384 12.71 7.112 17.438 4.729 4.724 10.593 7.108 17.439 7.108 6.845 0 12.71-2.384 17.472-7.108 4.733-4.733 7.15-10.593 7.15-17.438 0-6.81-2.421-12.67-7.15-17.4m56.638-6.681-17.055 47.328h-15.059l-17.21-47.328h13.807l10.817 31.24 10.894-31.24h13.806Zm13.166 19.426c.719-2.608 2.005-4.69 3.898-6.162 2.005-1.553 4.574-2.349 7.642-2.349 2.568 0 4.913.758 6.957 2.238 1.893 1.394 3.214 3.476 3.898 6.273h-22.395Zm11.54-19.856c-7.151 0-13.089 2.344-17.667 7-4.577 4.69-6.884 10.55-6.884 17.511 0 7.035 2.345 12.933 6.962 17.589 4.647 4.612 10.855 6.957 18.496 6.957 8.89 0 15.696-3.326 20.235-9.948l.263-.34-10.172-5.86-.189.259c-2.237 2.955-5.602 4.431-9.947 4.431-6.695 0-10.782-2.573-12.409-7.83h34.309l.073-.345c.3-1.699.456-3.364.456-4.913 0-6.884-2.238-12.748-6.66-17.438-4.424-4.69-10.099-7.073-16.866-7.073Zm47.749 13.462v18.647c0 1.472.34 2.534 1.058 3.175.719.68 1.816 1.059 3.253 1.175.645.035 1.36.035 2.117.035 1.058 0 2.233-.035 3.52-.112h.378v11.423l-.344.039a52.067 52.067 0 0 1-6.127.378c-5.03 0-8.812-.908-11.273-2.723-3.442-2.496-5.141-7-5.141-13.39V68.965h-8.842v-11.6h8.842v-9.659l12.559-3.82v13.48h8.717v11.6h-8.717ZM443.59 92.57c-3.554 0-6.505-1.205-8.777-3.515-2.302-2.307-3.477-5.37-3.477-9.04 0-3.631 1.175-6.695 3.481-9 2.268-2.35 5.258-3.52 8.777-3.52 3.52 0 6.506 1.17 8.85 3.52 2.307 2.34 3.477 5.369 3.477 9 0 3.67-1.17 6.733-3.476 9.04-2.345 2.306-5.297 3.515-8.855 3.515Zm12.477-36.636v5.615c-3.554-4.01-8.579-6.045-14.671-6.045-6.166 0-11.574 2.383-15.963 7.112-4.423 4.728-6.656 10.588-6.656 17.399 0 6.845 2.238 12.71 6.66 17.438 4.39 4.729 9.759 7.108 15.963 7.108 6.088 0 11.113-2.474 14.667-6.484v5.185h12.908V55.933h-12.908Zm22.279-8.653a7.224 7.224 0 0 1-2.229-5.292c0-2.013.744-3.803 2.229-5.292 1.488-1.531 3.235-2.276 5.244-2.276 2.083 0 3.868.745 5.353 2.272 1.488 1.493 2.233 3.283 2.233 5.292 0 2.018-.745 3.803-2.233 5.292a7.4 7.4 0 0 1-5.353 2.203 7.271 7.271 0 0 1-5.244-2.199m-.766 55.98h12.907V55.934H477.58v47.328Zm21.512 0H512V34.42h-12.908v68.84Z"/>
    <path d="m120.47 86.05-30.117 17.21V68.84l-30.118-17.4 30.118-17.02 30.118 17.21v34.42ZM60.232 51.63 30.113 68.84V34.42L0 17.21 30.118 0 60.23 17.21v34.42Zm0 68.84-30.118 17.21.005-34.42L0 86.05l30.113-17.21 30.118 17.21v34.42Z"/>
  </g>
</svg>
